X:553
T:Kerry polka
R:Polka
O:Ireland
S:Music from Ireland Vol. 3
B:Music from Ireland Vol. 3
Z:Transcription, chords:Mike Long
M:2/4
L:1/8
K:D
"Em"B2 B>A|"D"FA DA|"Em"B2 B>A|"D"B/c/d ed|\
"Em"B2 B>A|"D"FA D>E|FD AF|"A"E2 E2:|
|:"Em"Be e>f|"G"ed BA|"Em"Be e>f|"G"ed Bc|\
de dB|"D"AF D>E|AF dB|"A"A2 A2:|
